X: 41552
T: Unha Noite No Santo Cristo
R: polka
M: 2/4
K: Dmajor
M:4/4
K:D
F2A2|d4 dedc|d2(A2F2A2)|d4dedc|d2 A2F2A2|
G3A GFEG|F3B A3d|c3B AGFE|1 D4:|2 D4D4||
|:A3F DEFG|E3F G4|G2GF EFGE|F3A DEFG|
A2AF DEFG|E3F G4|G2GF EDEF|D4D4:|
|:(F6G2)|(A6d2)|c2(e2d2B2)|A4A4:|
|:d6B2|G3A B2d2|c6A2|F3G A2c2|
B6G2|E3F G2A2|F4ABAB|1 A4A4:|2 A4FAFA||
d4ABAB|A4FAFA|d4dcBc|d4dcBc||
dedc BcdB|cdcB ABcA|BcBA GABG|ABAG FGAF|
GAGF EFGE|FGFE DEFD|EFED CDEC|D4||

